img/home/footer-line.svg

<svg width="1160" height="39" viewBox="0 0 1160 39" fill="none" xmlns="http://www.w3.org/2000/svg">
<circle cx="580.5" cy="19.5" r="10.5" fill="url(#paint0_linear_35_13806)"/>
<path d="M603.598 19.5C603.598 8.7304 593 -4.78203e-05 593 -4.78203e-05C593 -4.78203e-05 605.718 8.7304 605.718 19.5C605.718 30.2695 593 39 593 39C593 39 603.598 30.2695 603.598 19.5Z" fill="url(#paint1_linear_35_13806)"/>
<path d="M610.609 19.5C610.609 13.1487 605.718 7.99995 605.718 7.99995C605.718 7.99995 611.587 13.1487 611.587 19.5C611.587 25.8512 605.718 31 605.718 31C605.718 31 610.609 25.8512 610.609 19.5Z" fill="url(#paint2_linear_35_13806)"/>
<path d="M610.625 18.9999L1140 19L1140 20L610.625 19.9999L610.625 18.9999Z" fill="url(#paint3_linear_35_13806)"/>
<path d="M556.402 19.5C556.402 30.2696 567 39 567 39C567 39 554.282 30.2696 554.282 19.5C554.282 8.73044 567 0 567 0C567 0 556.402 8.73044 556.402 19.5Z" fill="url(#paint4_linear_35_13806)"/>
<path d="M549.391 19.5C549.391 25.8513 554.282 31 554.282 31C554.282 31 548.413 25.8513 548.413 19.5C548.413 13.1487 554.282 8 554.282 8C554.282 8 549.391 13.1487 549.391 19.5Z" fill="url(#paint5_linear_35_13806)"/>
<path d="M549.375 20L20 20L20 19L549.375 19L549.375 20Z" fill="url(#paint6_linear_35_13806)"/>
<circle cx="1149.5" cy="19.5" r="5.5" transform="rotate(-180 1149.5 19.5)" fill="url(#paint7_linear_35_13806)"/>
<circle cx="1149.5" cy="19.5" r="10.5" transform="rotate(-180 1149.5 19.5)" fill="url(#paint8_linear_35_13806)"/>
<circle cx="10.5" cy="19.5" r="5.5" transform="rotate(-180 10.5 19.5)" fill="url(#paint9_linear_35_13806)"/>
<circle cx="10.5" cy="19.5" r="10.5" transform="rotate(-180 10.5 19.5)" fill="url(#paint10_linear_35_13806)"/>
<ellipse cx="580.5" cy="19.5" rx="16.5" ry="16.5" fill="url(#paint11_linear_35_13806)"/>
<defs>
<linearGradient id="paint0_linear_35_13806" x1="570" y1="19.5" x2="591" y2="19.5" gradientUnits="userSpaceOnUse">
<stop offset="0.253125" stop-color="#590DA6"/>
<stop offset="1" stop-color="#D43F8D"/>
</linearGradient>
<linearGradient id="paint1_linear_35_13806" x1="1140" y1="19.5" x2="593" y2="19.5" gradientUnits="userSpaceOnUse">
<stop offset="0.253125" stop-color="#590DA6"/>
<stop offset="1" stop-color="#D43F8D"/>
</linearGradient>
<linearGradient id="paint2_linear_35_13806" x1="1140" y1="19.5" x2="593" y2="19.5" gradientUnits="userSpaceOnUse">
<stop offset="0.253125" stop-color="#590DA6"/>
<stop offset="1" stop-color="#D43F8D"/>
</linearGradient>
<linearGradient id="paint3_linear_35_13806" x1="1140" y1="19.5" x2="593" y2="19.5" gradientUnits="userSpaceOnUse">
<stop offset="0.253125" stop-color="#590DA6"/>
<stop offset="1" stop-color="#D43F8D"/>
</linearGradient>
<linearGradient id="paint4_linear_35_13806" x1="567" y1="19.5" x2="20" y2="19.5" gradientUnits="userSpaceOnUse">
<stop offset="0.253125" stop-color="#590DA6"/>
<stop offset="1" stop-color="#D43F8D"/>
</linearGradient>
<linearGradient id="paint5_linear_35_13806" x1="567" y1="19.5" x2="20" y2="19.5" gradientUnits="userSpaceOnUse">
<stop offset="0.253125" stop-color="#590DA6"/>
<stop offset="1" stop-color="#D43F8D"/>
</linearGradient>
<linearGradient id="paint6_linear_35_13806" x1="567" y1="19.5" x2="20" y2="19.5" gradientUnits="userSpaceOnUse">
<stop offset="0.253125" stop-color="#590DA6"/>
<stop offset="1" stop-color="#D43F8D"/>
</linearGradient>
<linearGradient id="paint7_linear_35_13806" x1="1144" y1="19.5" x2="1155" y2="19.5" gradientUnits="userSpaceOnUse">
<stop offset="0.253125" stop-color="#590DA6"/>
<stop offset="1" stop-color="#D43F8D"/>
</linearGradient>
<linearGradient id="paint8_linear_35_13806" x1="1139" y1="19.5" x2="1160" y2="19.5" gradientUnits="userSpaceOnUse">
<stop offset="0.253125" stop-color="#590DA6"/>
<stop offset="1" stop-color="#D43F8D"/>
</linearGradient>
<linearGradient id="paint9_linear_35_13806" x1="5" y1="19.5" x2="16" y2="19.5" gradientUnits="userSpaceOnUse">
<stop offset="0.253125" stop-color="#590DA6"/>
<stop offset="1" stop-color="#D43F8D"/>
</linearGradient>
<linearGradient id="paint10_linear_35_13806" x1="9.53674e-07" y1="19.5" x2="21" y2="19.5" gradientUnits="userSpaceOnUse">
<stop offset="0.253125" stop-color="#590DA6"/>
<stop offset="1" stop-color="#D43F8D"/>
</linearGradient>
<linearGradient id="paint11_linear_35_13806" x1="564" y1="19.5" x2="597" y2="19.5" gradientUnits="userSpaceOnUse">
<stop offset="0.253125" stop-color="#590DA6"/>
<stop offset="1" stop-color="#D43F8D"/>
</linearGradient>
</defs>
</svg>

<svg width="1160" height="39" fill="none" xmlns="http://www.w3.org/2000/svg"><circle cx="580.5" cy="19.5" r="10.5" fill="url(#a)"/><path d="M603.598 19.5C603.598 8.73 593 0 593 0s12.718 8.73 12.718 19.5S593 39 593 39s10.598-8.73 10.598-19.5Z" fill="url(#b)"/><path d="M610.609 19.5c0-6.351-4.891-11.5-4.891-11.5s5.869 5.149 5.869 11.5-5.869 11.5-5.869 11.5 4.891-5.149 4.891-11.5Z" fill="url(#c)"/><path d="M610.625 19H1140v1H610.625v-1Z" fill="url(#d)"/><path d="M556.402 19.5C556.402 30.27 567 39 567 39s-12.718-8.73-12.718-19.5S567 0 567 0s-10.598 8.73-10.598 19.5Z" fill="url(#e)"/><path d="M549.391 19.5c0 6.351 4.891 11.5 4.891 11.5s-5.869-5.149-5.869-11.5S554.282 8 554.282 8s-4.891 5.149-4.891 11.5Z" fill="url(#f)"/><path d="M549.375 20H20v-1h529.375v1Z" fill="url(#g)"/><circle cx="1149.5" cy="19.5" r="5.5" transform="rotate(-180 1149.5 19.5)" fill="url(#h)"/><circle cx="1149.5" cy="19.5" r="10.5" transform="rotate(-180 1149.5 19.5)" fill="url(#i)"/><circle cx="10.5" cy="19.5" r="5.5" transform="rotate(-180 10.5 19.5)" fill="url(#j)"/><circle cx="10.5" cy="19.5" r="10.5" transform="rotate(-180 10.5 19.5)" fill="url(#k)"/><circle cx="580.5" cy="19.5" fill="url(#l)" r="16.5"/><defs><linearGradient id="a" x1="570" y1="19.5" x2="591" y2="19.5" gradientUnits="userSpaceOnUse"><stop offset=".253" stop-color="#590DA6"/><stop offset="1" stop-color="#D43F8D"/></linearGradient><linearGradient id="b" x1="1140" y1="19.5" x2="593" y2="19.5" gradientUnits="userSpaceOnUse"><stop offset=".253" stop-color="#590DA6"/><stop offset="1" stop-color="#D43F8D"/></linearGradient><linearGradient id="c" x1="1140" y1="19.5" x2="593" y2="19.5" gradientUnits="userSpaceOnUse"><stop offset=".253" stop-color="#590DA6"/><stop offset="1" stop-color="#D43F8D"/></linearGradient><linearGradient id="d" x1="1140" y1="19.5" x2="593" y2="19.5" gradientUnits="userSpaceOnUse"><stop offset=".253" stop-color="#590DA6"/><stop offset="1" stop-color="#D43F8D"/></linearGradient><linearGradient id="e" x1="567" y1="19.5" x2="20" y2="19.5" gradientUnits="userSpaceOnUse"><stop offset=".253" stop-color="#590DA6"/><stop offset="1" stop-color="#D43F8D"/></linearGradient><linearGradient id="f" x1="567" y1="19.5" x2="20" y2="19.5" gradientUnits="userSpaceOnUse"><stop offset=".253" stop-color="#590DA6"/><stop offset="1" stop-color="#D43F8D"/></linearGradient><linearGradient id="g" x1="567" y1="19.5" x2="20" y2="19.5" gradientUnits="userSpaceOnUse"><stop offset=".253" stop-color="#590DA6"/><stop offset="1" stop-color="#D43F8D"/></linearGradient><linearGradient id="h" x1="1144" y1="19.5" x2="1155" y2="19.5" gradientUnits="userSpaceOnUse"><stop offset=".253" stop-color="#590DA6"/><stop offset="1" stop-color="#D43F8D"/></linearGradient><linearGradient id="i" x1="1139" y1="19.5" x2="1160" y2="19.5" gradientUnits="userSpaceOnUse"><stop offset=".253" stop-color="#590DA6"/><stop offset="1" stop-color="#D43F8D"/></linearGradient><linearGradient id="j" x1="5" y1="19.5" x2="16" y2="19.5" gradientUnits="userSpaceOnUse"><stop offset=".253" stop-color="#590DA6"/><stop offset="1" stop-color="#D43F8D"/></linearGradient><linearGradient id="k" x1="0" y1="19.5" x2="21" y2="19.5" gradientUnits="userSpaceOnUse"><stop offset=".253" stop-color="#590DA6"/><stop offset="1" stop-color="#D43F8D"/></linearGradient><linearGradient id="l" x1="564" y1="19.5" x2="597" y2="19.5" gradientUnits="userSpaceOnUse"><stop offset=".253" stop-color="#590DA6"/><stop offset="1" stop-color="#D43F8D"/></linearGradient></defs></svg>
